assets/img/another/icon-2.svg

<svg width="62" height="86" viewBox="0 0 62 86" fill="none" xmlns="http://www.w3.org/2000/svg">
<g clip-path="url(#clip0_192_14507)">
<path d="M5.56517 19.4341C5.56517 19.5291 5.54604 19.605 5.54604 19.7C4.68546 34.4038 4.45598 49.1646 4.8767 63.8873C4.99145 67.5728 5.12532 71.2582 5.31656 74.9247C5.4313 77.1853 3.997 83.1884 5.58429 84.9362C7.49669 87.0258 18.34 85.4111 21.2851 85.4111C29.6997 85.4111 38.1333 85.4111 46.5479 85.4111C48.7663 85.4111 54.3505 86.4559 56.1673 84.7652C58.1562 82.9035 56.9896 76.9954 56.9896 74.4877C57.0087 57.6563 57.0278 40.8438 57.0278 24.0124C57.0278 21.5617 57.0087 19.0161 55.8613 16.8315C47.8866 16.4705 39.9692 17.0974 31.8798 16.6605C23.5417 16.2236 15.1463 15.9956 6.96122 17.9903C6.55962 18.0853 6.13889 18.1993 5.87115 18.5222C5.66079 18.7692 5.58429 19.1111 5.56517 19.4341Z" fill="#8ABC36"/>
<path opacity="0.2" d="M11.1112 24.1646C10.8052 26.2542 11.2259 29.1038 11.2068 30.5856C11.1877 33.9861 11.1686 37.3866 11.1494 40.787C11.1303 47.588 11.1303 54.389 11.1686 61.19C11.1877 66.3952 10.3462 71.5814 10.7287 76.7866C10.8435 78.2304 11.0729 79.7882 12.163 80.738C13.0236 81.4789 14.2475 81.6689 15.3758 81.7449C16.1982 81.7828 17.1353 81.7449 17.6898 81.118C18.0341 80.738 18.1488 80.2061 18.2253 79.6932C18.8947 75.6278 18.2062 71.5244 18.4739 67.497C18.7608 63.2796 18.5504 58.9863 18.5504 54.7499C18.5504 45.8403 18.5504 36.9306 18.5504 28.002C18.5504 25.6843 19.0859 23.6136 17.2117 22.3028C16.332 21.6949 12.6411 21.334 11.857 22.2079C11.4554 22.6258 11.2259 23.3287 11.1112 24.1646Z" fill="black"/>
<path opacity="0.2" d="M26.9647 24.1643C26.6587 26.254 27.0795 29.1036 27.0603 30.5854C27.0412 33.9858 27.0221 37.3863 27.003 40.7868C26.9838 47.5878 26.9838 54.3888 27.0221 61.1897C27.0412 66.3949 26.1997 71.5812 26.5822 76.7864C26.697 78.2302 26.9265 79.7879 28.0165 80.7378C28.8771 81.4787 30.101 81.6686 31.2294 81.7446C32.0517 81.7826 32.9888 81.7446 33.5434 81.1177C33.8876 80.7378 34.0023 80.2059 34.0788 79.6929C34.7482 75.6276 34.0597 71.5242 34.3275 67.4968C34.6334 63.2604 34.4231 58.9481 34.4231 54.7307C34.4231 45.8211 34.4231 36.9114 34.4231 27.9828C34.4231 25.6651 34.9585 23.5944 33.0844 22.2836C32.2047 21.6757 28.5138 21.3148 27.7297 22.1886C27.3281 22.6256 27.0986 23.3285 26.9647 24.1643Z" fill="black"/>
<path opacity="0.2" d="M42.8378 24.1643C42.5318 26.254 42.9525 29.1036 42.9334 30.5853C42.9143 33.9858 42.8951 37.3863 42.876 40.7868C42.8569 47.5878 42.8569 54.3887 42.8951 61.1897C42.9143 66.3949 42.0728 71.5811 42.4553 76.7864C42.57 78.2301 42.7995 79.7879 43.8896 80.7378C44.7502 81.4786 45.9741 81.6686 47.1024 81.7446C47.9247 81.7826 48.8618 81.7446 49.4164 81.1177C49.7606 80.7378 49.8754 80.2058 49.9519 79.6929C50.6212 75.6275 49.9328 71.5242 50.2005 67.4968C50.4874 63.2794 50.277 58.9861 50.277 54.7497C50.277 45.84 50.277 36.9304 50.277 28.0017C50.277 25.6841 50.8125 23.6134 48.9383 22.3026C48.0586 21.6947 44.3677 21.3337 43.5836 22.2076C43.182 22.6255 42.9525 23.3284 42.8378 24.1643Z" fill="black"/>
<path d="M61.5984 13.6021C61.6175 11.8734 61.6367 10.1446 61.6558 8.41589C61.6558 8.16893 61.6367 7.90297 60.2788 7.675C54.0062 7.656 47.7718 7.675 41.4991 7.675C40.3708 2.24182 35.5515 -0.531759 29.8334 0.0761495C25.4732 0.532081 19.8698 3.0397 19.6021 7.63701C17.9957 7.63701 16.3893 7.63701 14.7829 7.63701C10.2313 7.675 4.58976 8.70085 0.344232 7.08609C0.28686 7.33305 0.248612 7.61801 0.229488 7.90297C0.076496 10.1066 0.86058 12.8612 0 14.343C0.229488 14.609 0.535472 14.6469 0.898828 14.6849C3.15546 14.8939 15.9494 14.7419 19.43 14.7419C29.3745 14.7419 39.3189 14.7419 49.2634 14.7419C51.8834 14.7419 58.4621 14.8559 60.6231 14.6659C62.9753 14.457 61.5984 13.8681 61.5984 13.6021ZM21.6866 7.656C23.1209 5.0154 25.8939 3.78059 29.0302 3.13469C33.6009 2.16583 36.6225 4.04655 38.0759 7.71299C36.0296 7.71299 34.0025 7.713 31.9371 7.694C28.533 7.656 25.1098 7.656 21.6866 7.656Z" fill="#8ABC36"/>
</g>
<defs>
<clipPath id="clip0_192_14507">
<rect width="62" height="86" fill="white"/>
</clipPath>
</defs>
</svg>

<svg width="62" height="86" fill="none" xmlns="http://www.w3.org/2000/svg"><g clip-path="url(#clip0_192_14507)"><path d="M5.565 19.434c0 .095-.019.171-.019.266a508.254 508.254 0 00-.67 44.187c.115 3.686.25 7.371.44 11.038.115 2.26-1.319 8.263.268 10.011 1.913 2.09 12.756.475 15.701.475h25.263c2.218 0 7.802 1.045 9.62-.646 1.988-1.862.822-7.77.822-10.277.019-16.832.038-33.644.038-50.476 0-2.45-.02-4.996-1.167-7.18-7.974-.361-15.892.265-23.981-.172-8.338-.436-16.734-.664-24.919 1.33-.401.095-.822.21-1.09.532-.21.247-.287.59-.306.912z" fill="#8ABC36"/><path opacity=".2" d="M11.111 24.165c-.306 2.09.115 4.939.096 6.42l-.058 10.202c-.019 6.801-.019 13.602.02 20.403.019 5.205-.823 10.391-.44 15.597.115 1.443.344 3.001 1.434 3.951.86.74 2.085.93 3.213 1.007.822.038 1.76 0 2.314-.627.344-.38.459-.912.535-1.425.67-4.065-.019-8.169.249-12.196.287-4.217.076-8.51.076-12.747V28.002c0-2.318.536-4.388-1.338-5.7-.88-.607-4.57-.968-5.355-.094-.402.418-.631 1.12-.746 1.957zm15.854-.001c-.306 2.09.114 4.94.095 6.421l-.057 10.202c-.02 6.8-.02 13.602.02 20.403.018 5.205-.823 10.391-.44 15.596.114 1.444.344 3.002 1.434 3.952.86.74 2.084.93 3.212 1.007.823.038 1.76 0 2.314-.627.345-.38.46-.912.536-1.425.67-4.065-.02-8.169.248-12.196.306-4.237.096-8.549.096-12.766V27.983c0-2.318.535-4.389-1.339-5.7-.88-.607-4.57-.968-5.354-.094-.402.437-.631 1.14-.765 1.975zm15.873 0c-.306 2.09.114 4.94.095 6.421l-.057 10.202c-.02 6.8-.02 13.602.02 20.403.018 5.205-.823 10.391-.44 15.596.114 1.444.343 3.002 1.434 3.952.86.74 2.084.93 3.212 1.007.823.038 1.76 0 2.314-.627.345-.38.46-.912.536-1.425.67-4.066-.02-8.169.248-12.196.287-4.218.077-8.51.077-12.747V28.002c0-2.318.535-4.389-1.339-5.7-.88-.607-4.57-.968-5.354-.094-.402.418-.632 1.12-.746 1.956z" fill="#000"/><path d="M61.598 13.602l.058-5.186c0-.247-.02-.513-1.377-.741-6.273-.019-12.507 0-18.78 0C40.371 2.242 35.551-.532 29.833.076c-4.36.456-9.963 2.964-10.23 7.561h-4.82C10.23 7.675 4.59 8.701.344 7.087a5.259 5.259 0 00-.115.816c-.153 2.204.632 4.958-.229 6.44.23.266.535.304.899.342 2.256.209 15.05.057 18.531.057h29.833c2.62 0 9.2.114 11.36-.076 2.352-.209.975-.798.975-1.064zM21.687 7.656c1.434-2.64 4.207-3.875 7.343-4.521 4.57-.97 7.593.912 9.046 4.578-2.046 0-4.074 0-6.139-.019-3.404-.038-6.827-.038-10.25-.038z" fill="#8ABC36"/></g><defs><clipPath id="clip0_192_14507"><path fill="#fff" d="M0 0h62v86H0z"/></clipPath></defs></svg>
